img/image/design/input-name.svg

<svg width="39" height="40" viewBox="0 0 39 40" fill="none" xmlns="http://www.w3.org/2000/svg">
<circle cx="19.5" cy="20.2168" r="19.2" fill="white" stroke="#E1E1E1" stroke-width="0.6"/>
<mask id="mask0_411_1924" style="mask-type:alpha" maskUnits="userSpaceOnUse" x="0" y="0" width="38" height="40">
<path d="M37.7 19.7168C37.7 24.8993 35.9678 29.8429 32.7713 33.4158C29.5799 36.9832 24.9172 39.1982 19.0143 38.9171C8.66607 38.4244 0.3 30.042 0.3 19.7168C0.3 9.38907 8.67228 1.0168 19 1.0168C29.3277 1.0168 37.7 9.38907 37.7 19.7168Z" fill="white" stroke="#E1E1E1" stroke-width="0.6"/>
</mask>
<g mask="url(#mask0_411_1924)">
<path d="M19.5 10.7168C15.2837 10.7168 11.8535 14.147 11.8535 18.3633C11.8535 22.5796 15.2837 26.0098 19.5 26.0098C23.7163 26.0098 27.1465 22.5796 27.1465 18.3633C27.1465 14.147 23.7163 10.7168 19.5 10.7168Z" fill="#F3F3F7"/>
<path d="M29.0137 31.0052C26.9203 28.8796 24.145 27.709 21.1992 27.709H17.8008C14.855 27.709 12.0797 28.8796 9.9863 31.0052C7.90312 33.1204 6.75586 35.9124 6.75586 38.8672C6.75586 39.3364 7.13626 39.7168 7.60547 39.7168H31.3945C31.8637 39.7168 32.2441 39.3364 32.2441 38.8672C32.2441 35.9124 31.0969 33.1204 29.0137 31.0052Z" fill="#F3F3F7"/>
</g>
</svg>

<svg width="39" height="40" fill="none" xmlns="http://www.w3.org/2000/svg"><circle cx="19.5" cy="20.217" r="19.2" fill="#fff" stroke="#E1E1E1" stroke-width=".6"/><mask id="a" style="mask-type:alpha" maskUnits="userSpaceOnUse" x="0" y="0" width="38" height="40"><path d="M37.7 19.717c0 5.182-1.732 10.126-4.929 13.699-3.191 3.567-7.854 5.782-13.757 5.501C8.666 38.424.3 30.042.3 19.717c0-10.328 8.372-18.7 18.7-18.7s18.7 8.372 18.7 18.7Z" fill="#fff" stroke="#E1E1E1" stroke-width=".6"/></mask><g mask="url(#a)" fill="#F3F3F7"><path d="M19.5 10.717c-4.216 0-7.646 3.43-7.646 7.646 0 4.217 3.43 7.647 7.646 7.647 4.216 0 7.646-3.43 7.646-7.647 0-4.216-3.43-7.646-7.646-7.646ZM29.014 31.005c-2.094-2.125-4.869-3.296-7.815-3.296h-3.398c-2.946 0-5.721 1.17-7.815 3.296a11.144 11.144 0 0 0-3.23 7.862c0 .47.38.85.85.85h23.788c.47 0 .85-.38.85-.85 0-2.955-1.147-5.747-3.23-7.862Z"/></g></svg>
